images/Stijn-de-Vries-Logo-Black.svg

<?xml version="1.0" encoding="UTF-8"?>
<svg width="127px" height="202px" viewBox="0 0 127 202" version="1.1" xmlns="http://www.w3.org/2000/svg" xmlns:xlink="http://www.w3.org/1999/xlink">
    <!-- Generator: Sketch Beta 62 (91269) - https://sketch.com -->
    <title>Stijn-de-Vries-Logo-Black</title>
    <desc>Created with Sketch Beta.</desc>
    <g id="Stijn-de-Vries-Logo-Black" stroke="none" stroke-width="1" fill="none" fill-rule="evenodd">
        <path d="M68.0096647,0.0972884169 C73.8606994,0.35605114 79.6010343,1.05866348 85.0470767,2.47266954 C89.1755283,3.53317409 94.1262414,5.1644181 100.055401,8.03661791 C105.98456,10.9088177 110.134909,12.3448961 112.506572,12.3448961 C114.790397,12.3448961 116.591077,11.6379037 117.908668,10.2238976 C119.226259,8.80989154 120.455992,5.40749049 121.597904,0.0165923711 L125.550657,0.0165923711 L127,59.9347997 L121.597904,59.9347997 C119.050562,44.9109853 112.792099,32.8258335 102.822328,23.6789818 C99.9876689,21.0782999 97.0873388,18.8473435 94.1213299,16.9861093 C87.6825685,12.9456485 75.7457722,7.44875255 67.2604553,6.01292208 C66.2158017,5.83615256 63.6120878,5.53101169 61.9535774,5.40099136 C60.7123635,5.2986272 59.0413469,5.2986272 58.5,5.2986272 C50.166625,5.2986272 42.7916988,7.56233377 36.375,12.0898148 C29.9583013,16.6172959 26.75,23.4503361 26.75,32.5891405 C26.75,41.7279448 30.2082988,48.728667 37.125,53.5915171 C44.0417013,58.4543671 53.8749363,62.6883368 66.625,66.2935532 C79.3750638,69.8987696 88.6249713,73.0428065 94.375,75.7257582 C100.125029,78.40871 105.583308,81.9300313 110.75,86.2898279 C121.083385,95.0094211 126.25,108.50782 126.25,126.785428 L126.25,137.254658 L125.542,136.979 L11.8101025,186.705016 L1.20102738,201.937888 L0,201.937888 L0,161.049652 L1.20102738,161.049652 L11.7819806,177.513044 L116.485,133.458 L13,93.2366224 L1.2,113.35866 L0,113.35866 L0,60.8318674 L0.00292294849,60.8201244 C0,60.5911296 0,60.3614812 0,60.1311792 C0,42.021255 5.62494375,27.4748442 16.875,16.4915105 C27.8939713,5.73378306 42.3104106,0.244512308 60.1247348,0.0235434593 C60.4983288,0.0189094 61.905454,0.012665145 62.0223943,0.0109891103 C64.0544528,-0.0181351603 66.0502096,0.0106312752 68.0096647,0.0972884169 Z" id="Shape" fill="#000000"></path>
    </g>
</svg>

<svg xmlns="http://www.w3.org/2000/svg" width="127" height="202" viewBox="0 0 127 202"><title>Stijn-de-Vries-Logo-Black</title><path fill="#000" fill-rule="evenodd" d="M68.01.097c5.85.26 11.591.962 17.037 2.376 4.129 1.06 9.08 2.691 15.008 5.564 5.93 2.872 10.08 4.308 12.452 4.308 2.283 0 4.084-.707 5.402-2.121 1.317-1.414 2.547-4.817 3.689-10.207h3.953L127 59.935h-5.402c-2.547-15.024-8.806-27.11-18.776-36.256-2.834-2.6-5.735-4.832-8.7-6.693-6.44-4.04-18.376-9.537-26.862-10.973-1.044-.177-3.648-.482-5.306-.612-1.242-.102-2.913-.102-3.454-.102-8.333 0-15.708 2.263-22.125 6.79-6.417 4.528-9.625 11.361-9.625 20.5s3.458 16.14 10.375 21.003c6.917 4.862 16.75 9.096 29.5 12.702 12.75 3.605 22 6.749 27.75 9.432 5.75 2.683 11.208 6.204 16.375 10.564 10.333 8.72 15.5 22.218 15.5 40.495v10.47l-.708-.276L11.81 186.705 1.201 201.938H0V161.05h1.201l10.581 16.463 104.703-44.055L13 93.237 1.2 113.359H0V60.832l.003-.012C0 60.591 0 60.361 0 60.131c0-18.11 5.625-32.656 16.875-43.64C27.894 5.735 42.31.246 60.125.025c.373-.005 1.78-.011 1.897-.013 2.032-.03 4.028 0 5.988.086z"/></svg>
